lib/brands/icons/google-authenticator.svg

<svg xmlns="http://www.w3.org/2000/svg" fill="none" aria-hidden="true" viewBox="0 0 48 48"><g id="google-authenticator-Icon"><g id="Group"><path id="Vector" fill="#616161" d="M24.001 42C33.9421 42 42.001 33.9411 42.001 24C42.001 14.0589 33.9421 6 24.001 6C14.0599 6 6.00098 14.0589 6.00098 24C6.00098 33.9411 14.0599 42 24.001 42Z"/><path id="Vector_2" fill="#9E9E9E" d="M24.001 35.4541C17.6741 35.4541 12.5468 30.3268 12.5468 24C12.5468 17.6732 17.6741 12.5458 24.001 12.5458C27.1629 12.5458 30.0261 13.828 32.1003 15.9007L36.7286 11.2724C33.4709 8.01467 28.9702 6 24.001 6C14.0596 6 6.00098 14.0587 6.00098 24C6.00098 33.9413 14.0596 42 24.001 42C28.9716 42 33.4709 39.9853 36.7301 36.7291L32.1017 32.1007C30.0261 34.172 27.1629 35.4541 24.001 35.4541Z"/><path id="Vector_3" fill="#424242" d="M35.4549 24H29.7271C29.7271 20.8381 27.1627 18.2722 23.9993 18.2722C20.8359 18.2722 18.2729 20.8366 18.2729 24C18.2729 25.5404 18.8821 26.9372 19.8728 27.9684L19.8684 27.9728L26.9597 35.064L26.9611 35.0654C31.852 33.76 35.4549 29.3014 35.4549 24Z"/><path id="Vector_4" fill="#616161" d="M41.9996 24H35.4538C35.4538 29.3014 31.8494 33.76 26.9614 35.0654L32.0162 40.1202C37.934 37.1715 41.9996 31.0608 41.9996 24Z"/><path id="Vector_5" fill="#212121" fill-opacity="0.1" d="M24.001 41.7941C14.0944 41.7941 6.05899 33.7905 6.00243 23.897C6.00243 23.9318 6.00098 23.9652 6.00098 24C6.00098 33.9414 14.0596 42 24.001 42C33.9423 42 42.001 33.9414 42.001 24C42.001 23.9652 41.9995 23.9318 41.9995 23.897C41.943 33.7905 33.9061 41.7941 24.001 41.7941Z"/><path id="Vector_6" fill="white" fill-opacity="0.05" d="M26.9629 35.0654L27.1224 35.225C31.9292 33.8674 35.4552 29.4493 35.4552 24.2045V24C35.4552 29.3014 31.8509 33.76 26.9629 35.0654Z"/><g id="Group_2"><path id="Vector_7" fill="#9E9E9E" d="M38.7282 22.3633H24.0004C23.0967 22.3633 22.3643 23.0957 22.3643 23.9994C22.3643 24.903 23.0967 25.6355 24.0004 25.6355H38.7267C39.6303 25.6355 40.3628 24.903 40.3628 23.9994C40.3643 23.0957 39.6318 22.3633 38.7282 22.3633Z"/><path id="Vector_8" fill="#BDBDBD" d="M38.7282 22.3633H24.0004C23.0967 22.3633 22.3643 23.0957 22.3643 23.9994C22.3643 24.903 23.0967 25.6355 24.0004 25.6355H38.7267C39.6303 25.6355 40.3628 24.903 40.3628 23.9994C40.3643 23.0957 39.6318 22.3633 38.7282 22.3633Z" opacity="0.5"/></g><g id="Group_3"><g id="Group_4"><path id="Vector_9" fill="#BDBDBD" d="M9.27297 25.2273C9.95067 25.2273 10.5 24.6779 10.5 24.0002C10.5 23.3225 9.95067 22.7731 9.27297 22.7731C8.59528 22.7731 8.0459 23.3225 8.0459 24.0002C8.0459 24.6779 8.59528 25.2273 9.27297 25.2273Z"/><path id="Vector_10" fill="#BDBDBD" d="M24.001 10.4995C24.6787 10.4995 25.2281 9.95009 25.2281 9.27239C25.2281 8.5947 24.6787 8.04532 24.001 8.04532C23.3233 8.04532 22.7739 8.5947 22.7739 9.27239C22.7739 9.95009 23.3233 10.4995 24.001 10.4995Z"/><path id="Vector_11" fill="#BDBDBD" d="M24.001 39.9536C24.6787 39.9536 25.2281 39.4043 25.2281 38.7266C25.2281 38.0489 24.6787 37.4995 24.001 37.4995C23.3233 37.4995 22.7739 38.0489 22.7739 38.7266C22.7739 39.4043 23.3233 39.9536 24.001 39.9536Z"/><path id="Vector_12" fill="#BDBDBD" d="M13.5694 14.8131C14.2471 14.8131 14.7964 14.2637 14.7964 13.586C14.7964 12.9083 14.2471 12.3589 13.5694 12.3589C12.8917 12.3589 12.3423 12.9083 12.3423 13.586C12.3423 14.2637 12.8917 14.8131 13.5694 14.8131Z"/><path id="Vector_13" fill="#BDBDBD" d="M13.5694 35.6589C14.2471 35.6589 14.7964 35.1095 14.7964 34.4318C14.7964 33.7541 14.2471 33.2047 13.5694 33.2047C12.8917 33.2047 12.3423 33.7541 12.3423 34.4318C12.3423 35.1095 12.8917 35.6589 13.5694 35.6589Z"/></g><path id="Vector_14" fill="#757575" d="M34.4326 35.6586C35.1103 35.6586 35.6597 35.1093 35.6597 34.4316C35.6597 33.7539 35.1103 33.2045 34.4326 33.2045C33.7549 33.2045 33.2056 33.7539 33.2056 34.4316C33.2056 35.1093 33.7549 35.6586 34.4326 35.6586Z"/><path id="Vector_15" fill="white" fill-opacity="0.2" d="M24.0008 22.5684H38.7272C39.596 22.5684 40.3067 23.2472 40.3575 24.103C40.3589 24.0682 40.3633 24.0348 40.3633 24C40.3633 23.0964 39.6308 22.3639 38.7272 22.3639H24.0008C23.0972 22.3639 22.3647 23.0964 22.3647 24C22.3647 24.0348 22.3662 24.0682 22.3705 24.103C22.4213 23.2472 23.1306 22.5684 24.0008 22.5684Z"/><path id="Vector_16" fill="#212121" fill-opacity="0.2" d="M40.3575 24.1015C40.3038 24.9558 39.5946 25.6361 38.7272 25.6361H24.0008C23.132 25.6361 22.4213 24.9573 22.3705 24.1015C22.3662 24.1363 22.3647 24.1697 22.3647 24.2031C22.3647 25.1067 23.0972 25.8392 24.0008 25.8392H38.7272C39.6308 25.8392 40.3633 25.1067 40.3633 24.2031C40.3633 24.1697 40.3618 24.1363 40.3575 24.1015Z"/><path id="Vector_17" fill="#212121" fill-opacity="0.1" d="M24.001 12.7504C27.163 12.7504 30.0262 14.0325 32.1003 16.1052L36.8287 11.3739C36.7939 11.3391 36.7606 11.3043 36.7272 11.2709L32.1003 15.8993C30.0262 13.8266 27.163 12.5444 24.001 12.5444C17.6742 12.5444 12.5469 17.6717 12.5469 23.9985C12.5469 24.0334 12.5483 24.0667 12.5483 24.1015C12.6034 17.8226 17.709 12.7504 24.001 12.7504Z"/><path id="Vector_18" fill="url(#paint0_radial_94_18187)" d="M24.001 42C33.9421 42 42.001 33.9411 42.001 24C42.001 14.0589 33.9421 6 24.001 6C14.0599 6 6.00098 14.0589 6.00098 24C6.00098 33.9411 14.0599 42 24.001 42Z"/></g></g></g><defs><radialGradient id="paint0_radial_94_18187" cx="0" cy="0" r="1" gradientTransform="translate(11.28 11.238) scale(35.9378)" gradientUnits="userSpaceOnUse"><stop stop-color="white" stop-opacity="0.1"/><stop offset="1" stop-color="white" stop-opacity="0"/></radialGradient></defs></svg>

<svg xmlns="http://www.w3.org/2000/svg" fill="none" aria-hidden="true" viewBox="0 0 48 48"><path fill="#616161" d="M24.001 42c9.941 0 18-8.059 18-18s-8.059-18-18-18-18 8.059-18 18 8.059 18 18 18Z"/><path fill="#9E9E9E" d="M24.001 35.454c-6.327 0-11.454-5.127-11.454-11.454 0-6.327 5.127-11.454 11.454-11.454 3.162 0 6.025 1.282 8.1 3.355l4.628-4.629A17.945 17.945 0 0 0 24 6C14.059 6 6 14.059 6 24s8.059 18 18 18c4.97 0 9.47-2.015 12.73-5.27L32.1 32.1a11.433 11.433 0 0 1-8.1 3.354Z"/><path fill="#424242" d="M35.455 24h-5.728a5.726 5.726 0 1 0-9.854 3.968l-.004.005 7.09 7.091.002.001c4.891-1.305 8.494-5.764 8.494-11.065Z"/><path fill="#616161" d="M42 24h-6.546c0 5.301-3.605 9.76-8.493 11.065l5.055 5.055C37.934 37.172 42 31.06 42 24Z"/><path fill="#212121" fill-opacity=".1" d="M24.001 41.794c-9.907 0-17.942-8.003-17.999-17.897L6.001 24c0 9.941 8.059 18 18 18s18-8.059 18-18l-.002-.103c-.056 9.894-8.093 17.897-17.998 17.897Z"/><path fill="#fff" fill-opacity=".05" d="m26.963 35.065.16.16c4.806-1.358 8.332-5.776 8.332-11.02V24c0 5.301-3.604 9.76-8.492 11.065Z"/><path fill="#9E9E9E" d="M38.728 22.363H24a1.636 1.636 0 1 0 0 3.273h14.727a1.636 1.636 0 0 0 .001-3.273Z"/><path fill="#BDBDBD" d="M38.728 22.363H24a1.636 1.636 0 1 0 0 3.273h14.727a1.636 1.636 0 0 0 .001-3.273Z" opacity=".5"/><path fill="#BDBDBD" d="M9.273 25.227a1.227 1.227 0 1 0 0-2.454 1.227 1.227 0 0 0 0 2.454ZM24 10.5a1.227 1.227 0 1 0 0-2.455 1.227 1.227 0 0 0 0 2.454Zm0 29.454a1.227 1.227 0 1 0 .001-2.454 1.227 1.227 0 0 0 0 2.454ZM13.57 14.813a1.227 1.227 0 1 0 0-2.454 1.227 1.227 0 0 0 0 2.454Zm0 20.846a1.227 1.227 0 1 0 0-2.454 1.227 1.227 0 0 0 0 2.454Z"/><path fill="#757575" d="M34.432 35.659a1.227 1.227 0 1 0 0-2.454 1.227 1.227 0 0 0 0 2.454Z"/><path fill="#fff" fill-opacity=".2" d="M24.001 22.568h14.726c.87 0 1.58.68 1.63 1.535.002-.035.006-.068.006-.103 0-.904-.732-1.636-1.636-1.636H24.001c-.904 0-1.636.732-1.636 1.636 0 .035.001.068.006.103.05-.856.76-1.535 1.63-1.535Z"/><path fill="#212121" fill-opacity=".2" d="M40.358 24.102a1.637 1.637 0 0 1-1.63 1.534H24c-.869 0-1.58-.679-1.63-1.534a.801.801 0 0 0-.006.101c0 .904.732 1.636 1.636 1.636h14.726c.904 0 1.636-.732 1.636-1.636a.801.801 0 0 0-.005-.101Z"/><path fill="#212121" fill-opacity=".1" d="M24.001 12.75c3.162 0 6.025 1.283 8.1 3.355l4.728-4.731-.102-.103-4.627 4.628a11.423 11.423 0 0 0-8.099-3.355c-6.327 0-11.454 5.128-11.454 11.454l.001.104c.055-6.28 5.161-11.352 11.453-11.352Z"/><path fill="url(#a)" d="M24.001 42c9.941 0 18-8.059 18-18s-8.059-18-18-18-18 8.059-18 18 8.059 18 18 18Z"/><defs><radialGradient id="a" cx="0" cy="0" r="1" gradientTransform="translate(11.28 11.238) scale(35.9378)" gradientUnits="userSpaceOnUse"><stop stop-color="#fff" stop-opacity=".1"/><stop offset="1" stop-color="#fff" stop-opacity="0"/></radialGradient></defs></svg>
